optimized/24/outline/yes-no.svg

<svg viewBox="0 0 24 24" fill="none" xmlns="http://www.w3.org/2000/svg">
  <g clip-path="url(#clip0_2208_12342)">
    <path d="M17.5303 6.46967C17.8232 6.76256 17.8232 7.23744 17.5303 7.53033L7.53033 17.5303C7.23744 17.8232 6.76256 17.8232 6.46967 17.5303C6.17678 17.2374 6.17678 16.7626 6.46967 16.4697L16.4697 6.46967C16.7626 6.17678 17.2374 6.17678 17.5303 6.46967Z" fill="#333333"/>
    <path d="M14.5303 13.4697C14.2374 13.1768 13.7626 13.1768 13.4697 13.4697C13.1768 13.7626 13.1768 14.2374 13.4697 14.5303L14.4393 15.5L13.4697 16.4697C13.1768 16.7626 13.1768 17.2374 13.4697 17.5303C13.7626 17.8232 14.2374 17.8232 14.5303 17.5303L15.5 16.5607L16.4697 17.5303C16.7626 17.8232 17.2374 17.8232 17.5303 17.5303C17.8232 17.2374 17.8232 16.7626 17.5303 16.4697L16.5607 15.5L17.5303 14.5303C17.8232 14.2374 17.8232 13.7626 17.5303 13.4697C17.2374 13.1768 16.7626 13.1768 16.4697 13.4697L15.5 14.4393L14.5303 13.4697Z" fill="#333333"/>
    <path d="M12.5303 7.53033C12.8232 7.23744 12.8232 6.76256 12.5303 6.46967C12.2374 6.17678 11.7626 6.17678 11.4697 6.46967L8.5 9.43934L7.03033 7.96967C6.73744 7.67678 6.26256 7.67678 5.96967 7.96967C5.67678 8.26256 5.67678 8.73744 5.96967 9.03033L7.96967 11.0303C8.26256 11.3232 8.73744 11.3232 9.03033 11.0303L12.5303 7.53033Z" fill="#333333"/>
    <path d="M5 3C3.89543 3 3 3.89543 3 5V19C3 20.1046 3.89543 21 5 21H19C20.1046 21 21 20.1046 21 19V5C21 3.89543 20.1046 3 19 3H5ZM19 4.5C19.2761 4.5 19.5 4.72386 19.5 5V19C19.5 19.2761 19.2761 19.5 19 19.5H5C4.72386 19.5 4.5 19.2761 4.5 19V5C4.5 4.72386 4.72386 4.5 5 4.5H19Z" fill="#333333"/>
  </g>
  <defs>
    <clipPath id="clip0_2208_12342">
      <rect width="24" height="24" fill="white"/>
    </clipPath>
  </defs>
</svg>

<svg xmlns="http://www.w3.org/2000/svg" width="24" height="24" fill="none">
  <g fill="#333" clip-path="url(#a)">
    <path d="M17.53 6.47a.75.75 0 0 1 0 1.06l-10 10a.75.75 0 0 1-1.06-1.06l10-10a.75.75 0 0 1 1.06 0ZM14.53 13.47a.75.75 0 1 0-1.06 1.06l.97.97-.97.97a.75.75 0 1 0 1.06 1.06l.97-.97.97.97a.75.75 0 1 0 1.06-1.06l-.97-.97.97-.97a.75.75 0 1 0-1.06-1.06l-.97.97-.97-.97ZM12.53 7.53a.75.75 0 0 0-1.06-1.06L8.5 9.44 7.03 7.97a.75.75 0 0 0-1.06 1.06l2 2a.75.75 0 0 0 1.06 0l3.5-3.5Z"/>
    <path d="M5 3a2 2 0 0 0-2 2v14a2 2 0 0 0 2 2h14a2 2 0 0 0 2-2V5a2 2 0 0 0-2-2H5Zm14 1.5a.5.5 0 0 1 .5.5v14a.5.5 0 0 1-.5.5H5a.5.5 0 0 1-.5-.5V5a.5.5 0 0 1 .5-.5h14Z"/>
  </g>
  <defs>
    <clipPath id="a">
      <path fill="#fff" d="M0 0h24v24H0z"/>
    </clipPath>
  </defs>
</svg>
